assets/images/vk_f.svg

<svg width="22" height="12" viewBox="0 0 22 12" fill="none" xmlns="http://www.w3.org/2000/svg">
<path fill-rule="evenodd" clip-rule="evenodd" d="M21.4935 0.805263C21.6482 0.331579 21.4935 0 20.7713 0H18.364C17.745 0 17.4699 0.3 17.3151 0.631579C17.3151 0.631579 16.0943 3.37895 14.3576 5.14737C13.7902 5.66842 13.5495 5.82632 13.24 5.82632C13.0852 5.82632 12.8617 5.66842 12.8617 5.19474V0.805263C12.8617 0.236842 12.6897 0 12.1739 0H8.39105C8.01276 0 7.77204 0.268421 7.77204 0.505263C7.77204 1.0421 8.63178 1.16842 8.73494 2.65263V5.90526C8.73494 6.61579 8.59739 6.7421 8.28788 6.7421C7.47973 6.7421 5.48513 3.99474 4.31589 0.836843C4.07516 0.252632 3.85163 0 3.23262 0H0.825349C0.137558 0 0 0.3 0 0.631579C0 1.21579 0.808154 4.12105 3.80004 7.95789C5.79464 10.5789 8.59739 12 11.1422 12C12.6725 12 12.8617 11.6842 12.8617 11.1474V9.15789C12.8617 8.52632 12.9992 8.4 13.4979 8.4C13.859 8.4 14.4608 8.55789 15.888 9.82105C17.5215 11.3211 17.7966 12 18.7079 12H21.1152C21.803 12 22.1469 11.6842 21.9405 11.0684C21.717 10.4526 20.9432 9.55263 19.9115 8.47895C19.3441 7.86316 18.5016 7.21579 18.2608 6.88421C17.8998 6.45789 18.0029 6.26842 18.2608 5.90526C18.2608 5.88947 21.2012 2.1 21.4935 0.805263Z" fill="#FF5C00"/>
</svg>

<svg xmlns="http://www.w3.org/2000/svg" width="22" height="12" fill="none"><path fill="#FF5C00" fill-rule="evenodd" d="M21.494.805c.154-.473 0-.805-.723-.805h-2.407c-.619 0-.894.3-1.049.632 0 0-1.22 2.747-2.957 4.515-.568.521-.809.68-1.118.68-.155 0-.378-.159-.378-.632V.805c0-.568-.172-.805-.688-.805H8.39c-.378 0-.619.268-.619.505 0 .537.86.663.963 2.148v3.252c0 .71-.138.837-.447.837-.808 0-2.803-2.747-3.972-5.905C4.076.253 3.852 0 3.233 0H.825C.138 0 0 .3 0 .632c0 .584.808 3.49 3.8 7.326C5.795 10.578 8.597 12 11.142 12c1.53 0 1.72-.316 1.72-.853v-1.99c0-.63.137-.757.636-.757.361 0 .963.158 2.39 1.421 1.633 1.5 1.909 2.179 2.82 2.179h2.407c.688 0 1.032-.316.826-.932-.224-.615-.998-1.515-2.03-2.59-.567-.615-1.41-1.262-1.65-1.594-.361-.426-.258-.616 0-.979 0-.016 2.94-3.805 3.233-5.1Z" clip-rule="evenodd"/></svg>
